gama.ui.shared/icons_svg/dark/editor/imported.in.svg

<svg height="24.587" viewBox="-706.483 -3263.542 25 24.587" width="25" xmlns="http://www.w3.org/2000/svg"><g fill="none"><path d="m-689.179-3263.0417h-12.9524c-2.127 0-3.8513 1.7243-3.8513 3.8513v12.6394c0 2.127 1.7243 3.8512 3.8513 3.8512h12.9524c2.127 0 3.8513-1.7242 3.8513-3.8512v-12.6394c0-2.127-1.7243-3.8513-3.8513-3.8513z" fill="#666"/><path d="m-689.179-3263.0417h-12.9524c-2.127 0-3.8513 1.7243-3.8513 3.8513v12.6394c0 2.127 1.7243 3.8512 3.8513 3.8512h12.9524c2.127 0 3.8513-1.7242 3.8513-3.8512v-12.6394c0-2.127-1.7243-3.8513-3.8513-3.8513z" stroke="#fff" stroke-linecap="round" stroke-linejoin="round" stroke-width=".25"/><path d="m-685.83405-3259.7964h-12.95235c-2.1271 0-3.8514 1.7244-3.8514 3.8514v12.6392c0 2.1271 1.7243 3.8514 3.8514 3.8514h12.95235c2.12705 0 3.85135-1.7243 3.85135-3.8514v-12.6392c0-2.127-1.7243-3.8514-3.85135-3.8514z" fill="#666"/><path d="m-685.83405-3259.7964h-12.95235c-2.1271 0-3.8514 1.7244-3.8514 3.8514v12.6392c0 2.1271 1.7243 3.8514 3.8514 3.8514h12.95235c2.12705 0 3.85135-1.7243 3.85135-3.8514v-12.6392c0-2.127-1.7243-3.8514-3.85135-3.8514z" stroke="#fff" stroke-linecap="round" stroke-linejoin="round" stroke-width=".25"/><path d="m-692.0712-3251.5657c-.2063 0-.3684-.1621-.3684-.3683 0-.2064.1621-.3685.3684-.3685h3.68425c.20635 0 .36845.1621.36845.3685 0 .2062-.1621.3683-.36845.3683zm-1.47365 2.2107c-.20635 0-.36845-.1622-.36845-.3686s.1621-.3684.36845-.3684h5.1579c.20635 0 .36845.162.36845.3684s-.1621.3686-.36845.3686zm0 2.2104c-.20635 0-.36845-.1621-.36845-.3684 0-.2064.1621-.3685.36845-.3685h3.68425c.2063 0 .3684.1621.3684.3685 0 .2063-.1621.3684-.3684.3684zm1.47365-8.1054c-.2063 0-.3684-.162-.3684-.3683s.1621-.3684.3684-.3684h5.1579c1.0169 0 1.8421.8252 1.8421 1.8421v9.5789c0 1.0167-.8252 1.8421-1.8421 1.8421h-8.1052c-1.0169 0-1.8421-.8254-1.8421-1.8421v-3.6843c0-.206.1621-.3683.3684-.3683s.3684.1623.3684.3683v3.6843c0 .6117.4937 1.1053 1.1053 1.1053h8.1052c.6116 0 1.1053-.4936 1.1053-1.1053v-9.5789c0-.6114-.4937-1.1054-1.1053-1.1054zm-4.0526 2.579c0 .2064-.1621.3685-.3684.3685s-.3684-.1621-.3684-.3685v-2.579c0-.8104.6631-1.4736 1.47365-1.4736s1.47365.6632 1.47365 1.4736v2.579c0 1.422-1.1568 2.579-2.5789 2.579s-2.579-1.157-2.579-2.579v-3.684c0-.2065.1621-.3686.36846-.3686.20634 0 .36844.1621.36844.3686v3.684c0 1.017.8252 1.842 1.8421 1.842 1.0168 0 1.8421-.825 1.8421-1.842v-2.579c0-.405-.3316-.7367-.73685-.7367s-.73685.3317-.73685.7367z" fill="#c0e0ff"/></g></svg>

<?xml version="1.0" encoding="UTF-8" standalone="no"?>
<!DOCTYPE svg PUBLIC "-//W3C//DTD SVG 1.1//EN" "http://www.w3.org/Graphics/SVG/1.1/DTD/svg11.dtd">
<svg xmlns="http://www.w3.org/2000/svg" xmlns:xl="http://www.w3.org/1999/xlink" version="1.1" xmlns:dc="http://purl.org/dc/elements/1.1/" viewBox="-706.4827 -3263.5417 25 24.58723" width="25" height="24.58723">
  <defs/>
  <g id="SOURCES" stroke-opacity="1" fill="none" stroke="none" fill-opacity="1" stroke-dasharray="none">
    <title>SOURCES</title>
    <g id="SOURCES_Dark">
      <title>Dark</title>
      <g id="Graphic_11457">
        <path d="M -689.179 -3263.0417 L -702.1314 -3263.0417 C -704.2584 -3263.0417 -705.9827 -3261.3174 -705.9827 -3259.1904 L -705.9827 -3246.551 C -705.9827 -3244.424 -704.2584 -3242.6998 -702.1314 -3242.6998 L -689.179 -3242.6998 C -687.052 -3242.6998 -685.3277 -3244.424 -685.3277 -3246.551 L -685.3277 -3259.1904 C -685.3277 -3261.3174 -687.052 -3263.0417 -689.179 -3263.0417 Z" fill="#666"/>
        <path d="M -689.179 -3263.0417 L -702.1314 -3263.0417 C -704.2584 -3263.0417 -705.9827 -3261.3174 -705.9827 -3259.1904 L -705.9827 -3246.551 C -705.9827 -3244.424 -704.2584 -3242.6998 -702.1314 -3242.6998 L -689.179 -3242.6998 C -687.052 -3242.6998 -685.3277 -3244.424 -685.3277 -3246.551 L -685.3277 -3259.1904 C -685.3277 -3261.3174 -687.052 -3263.0417 -689.179 -3263.0417 Z" stroke="white" stroke-linecap="round" stroke-linejoin="round" stroke-width=".25"/>
      </g>
      <g id="Graphic_11456">
        <path d="M -685.83405 -3259.7964 L -698.7864 -3259.7964 C -700.9135 -3259.7964 -702.6378 -3258.072 -702.6378 -3255.945 L -702.6378 -3243.3058 C -702.6378 -3241.1787 -700.9135 -3239.4544 -698.7864 -3239.4544 L -685.83405 -3239.4544 C -683.707 -3239.4544 -681.9827 -3241.1787 -681.9827 -3243.3058 L -681.9827 -3255.945 C -681.9827 -3258.072 -683.707 -3259.7964 -685.83405 -3259.7964 Z" fill="#666"/>
        <path d="M -685.83405 -3259.7964 L -698.7864 -3259.7964 C -700.9135 -3259.7964 -702.6378 -3258.072 -702.6378 -3255.945 L -702.6378 -3243.3058 C -702.6378 -3241.1787 -700.9135 -3239.4544 -698.7864 -3239.4544 L -685.83405 -3239.4544 C -683.707 -3239.4544 -681.9827 -3241.1787 -681.9827 -3243.3058 L -681.9827 -3255.945 C -681.9827 -3258.072 -683.707 -3259.7964 -685.83405 -3259.7964 Z" stroke="white" stroke-linecap="round" stroke-linejoin="round" stroke-width=".25"/>
      </g>
      <g id="Graphic_11454">
        <path d="M -692.0712 -3251.5657 C -692.2775 -3251.5657 -692.4396 -3251.7278 -692.4396 -3251.934 C -692.4396 -3252.1404 -692.2775 -3252.3025 -692.0712 -3252.3025 L -688.38695 -3252.3025 C -688.1806 -3252.3025 -688.0185 -3252.1404 -688.0185 -3251.934 C -688.0185 -3251.7278 -688.1806 -3251.5657 -688.38695 -3251.5657 Z M -693.54485 -3249.355 C -693.7512 -3249.355 -693.9133 -3249.5172 -693.9133 -3249.7236 C -693.9133 -3249.93 -693.7512 -3250.092 -693.54485 -3250.092 L -688.38695 -3250.092 C -688.1806 -3250.092 -688.0185 -3249.93 -688.0185 -3249.7236 C -688.0185 -3249.5172 -688.1806 -3249.355 -688.38695 -3249.355 Z M -693.54485 -3247.1446 C -693.7512 -3247.1446 -693.9133 -3247.3067 -693.9133 -3247.513 C -693.9133 -3247.7194 -693.7512 -3247.8815 -693.54485 -3247.8815 L -689.8606 -3247.8815 C -689.6543 -3247.8815 -689.4922 -3247.7194 -689.4922 -3247.513 C -689.4922 -3247.3067 -689.6543 -3247.1446 -689.8606 -3247.1446 Z M -692.0712 -3255.25 C -692.2775 -3255.25 -692.4396 -3255.412 -692.4396 -3255.6183 C -692.4396 -3255.8246 -692.2775 -3255.9867 -692.0712 -3255.9867 L -686.9133 -3255.9867 C -685.8964 -3255.9867 -685.0712 -3255.1615 -685.0712 -3254.1446 L -685.0712 -3244.5657 C -685.0712 -3243.549 -685.8964 -3242.7236 -686.9133 -3242.7236 L -695.0185 -3242.7236 C -696.0354 -3242.7236 -696.8606 -3243.549 -696.8606 -3244.5657 L -696.8606 -3248.25 C -696.8606 -3248.456 -696.6985 -3248.6183 -696.4922 -3248.6183 C -696.2859 -3248.6183 -696.1238 -3248.456 -696.1238 -3248.25 L -696.1238 -3244.5657 C -696.1238 -3243.954 -695.6301 -3243.4604 -695.0185 -3243.4604 L -686.9133 -3243.4604 C -686.3017 -3243.4604 -685.808 -3243.954 -685.808 -3244.5657 L -685.808 -3254.1446 C -685.808 -3254.756 -686.3017 -3255.25 -686.9133 -3255.25 Z M -696.1238 -3252.671 C -696.1238 -3252.4646 -696.2859 -3252.3025 -696.4922 -3252.3025 C -696.6985 -3252.3025 -696.8606 -3252.4646 -696.8606 -3252.671 L -696.8606 -3255.25 C -696.8606 -3256.0604 -696.1975 -3256.7236 -695.38695 -3256.7236 C -694.5764 -3256.7236 -693.9133 -3256.0604 -693.9133 -3255.25 L -693.9133 -3252.671 C -693.9133 -3251.249 -695.0701 -3250.092 -696.4922 -3250.092 C -697.9143 -3250.092 -699.0712 -3251.249 -699.0712 -3252.671 L -699.0712 -3256.355 C -699.0712 -3256.5615 -698.9091 -3256.7236 -698.70274 -3256.7236 C -698.4964 -3256.7236 -698.3343 -3256.5615 -698.3343 -3256.355 L -698.3343 -3252.671 C -698.3343 -3251.654 -697.5091 -3250.829 -696.4922 -3250.829 C -695.4754 -3250.829 -694.6501 -3251.654 -694.6501 -3252.671 L -694.6501 -3255.25 C -694.6501 -3255.655 -694.9817 -3255.9867 -695.38695 -3255.9867 C -695.7922 -3255.9867 -696.1238 -3255.655 -696.1238 -3255.25 Z" fill="#c0e0ff"/>
      </g>
    </g>
  </g>
</svg>
